X:12920
T:Maiblüemli-Walzer  FBb (wz07084) 
S:Hanny Christen. Bd.V  Basel II, Jura. S.44  (wz07084) orig. F,C,Bb
T: Basel II. Tänze aus Frenkendorf. S.43-53.
S:Überliefert durch Heinrich Thommen, Oktober 1941
%%MIDI program 21
R:Walzer
M:3/4
L:1/4
K:F %%MIDI gchordon
c |: "F"czc | Acf | ("Bb"d3 | d)zA | "F"czc | Acf | "C7"e3 | "Bb"dzd | ("C7"c2d)  | (E2d) | 
("F"c2f) | (F2A) | "C7"BAG | (d2c) |1 ("F"F3 | F)zc :|2 ("F"F3 | F)zG |: [K:C] ("C"G2e) | edc | ("Dm"A2f) | 
(f2d) | ("G7"B2G)  | (G2d) | ("C"e2c) | (c2G) | (G2e) | edc | ("Dm"A2f) | (f2d) | "G7"B>AG | B>cd |1 
("C"c3 | c)zG :|2 ("C"c3 | c) zc |: [K:F] "C7"czc | cze | ("F"f3 | c)zc | ("C7"g3 | c)zB | ("F"A3 | 
A)zc | ("Bb"d2f) | (B2d)  | ("F"c2f)  | (A2c) | ("C7"d2c) | (G2c) |1 ("F"F3 | F)zc :|2 ("F"F3 | F)zF || [K:Bb] 
|: !>!"Bb"d3 | !>!"F7"c3 | "Bb"BD>G | !>!F3 | !>!d3 | "Cm"e2d | cG>G | !>!c3 | ("F7"A2B)  | 
(c2e) | ("Bb"d2g) | f3 | "F7"AGF | ed>c |1 ("Bb"B3 | B)zF :|2 ("Bb"B3 | B)zz |] 
% wz07084
% Jan 1, 2018 

